X: 26725
T: Mike Shorrock's
R: reel
M: 4/4
K: Edorian
|:EAce dfed|g~e3 d ~e3|EAce dfec|d2 BG DGBG|
EAce dfed|Pg2 gf gfeg|Pf2 fefe df|1 e2 ed cBAG:|2 edcd edcA||
BeeB gBeB|gBeB gfed|f ~d3 Adde|fdad bdaf|
BeeB gBeB|gBeB gfec|dfeg fagb|afge fdBA|
BeeB gBeB|gBeB gfed|FDDF EDDE|FDDF edBA|
BeeB gBeB|gBeB gfec|dfeg fagb|afge dcAG|E8||

